assets/images/icon-4.svg

<svg width="24" height="24" viewBox="0 0 24 24" fill="none" xmlns="http://www.w3.org/2000/svg">
<g clip-path="url(#clip0_15_41)">
<g clip-path="url(#clip1_15_41)">
<path d="M13.9387 20.1555C8.37359 20.1555 3.85864 15.6452 3.85864 10.0754C3.85864 6.31998 5.94499 2.87868 9.27376 1.13928C14.2013 -1.42528 20.2962 0.492278 22.8655 5.4198C23.053 5.79488 22.903 6.24965 22.5326 6.43719C22.1669 6.62004 21.7215 6.47938 21.5246 6.11838C19.3398 1.93162 14.1591 0.300053 9.97234 2.48017C5.78089 4.66966 4.1587 9.83629 6.3435 14.0277C8.5283 18.2192 13.6996 19.8414 17.8911 17.6566C20.7838 16.1469 22.5701 13.1182 22.4857 9.85504C22.4763 9.43778 22.8092 9.09083 23.2265 9.08614C23.6438 9.07677 23.986 9.40496 23.9954 9.82223C24.1314 15.3921 19.7242 20.0195 14.1544 20.1555C14.0888 20.1508 14.0138 20.1555 13.9387 20.1555V20.1555Z" fill="#36496D"/>
<path d="M13.9293 15.2842C16.806 15.2842 19.1381 12.9522 19.1381 10.0754C19.1381 7.19865 16.806 4.86658 13.9293 4.86658C11.0525 4.86658 8.72046 7.19865 8.72046 10.0754C8.72046 12.9522 11.0525 15.2842 13.9293 15.2842Z" fill="#E3A6B6"/>
<path d="M13.9293 16.0391C10.6333 16.0391 7.96562 13.3667 7.96562 10.0754C7.96562 6.78415 10.638 4.11176 13.9293 4.11176C17.2205 4.11176 19.8929 6.78415 19.8929 10.0754C19.8883 13.3667 17.2205 16.0344 13.9293 16.0391ZM13.9293 5.62143C11.4679 5.62143 9.47529 7.614 9.47529 10.0754C9.47529 12.5368 11.4679 14.5294 13.9293 14.5294C16.3907 14.5294 18.3833 12.5368 18.3833 10.0754C18.3786 7.614 16.386 5.62143 13.9293 5.62143ZM2.64895 24C1.18617 24 0 22.8138 0 21.3511C0 20.5259 0.38445 19.7476 1.04083 19.246L4.13987 16.8783C4.43993 16.6486 4.86658 16.6767 5.13381 16.9439L7.06075 18.8709C7.32799 19.1381 7.35612 19.5648 7.12639 19.8648L4.75874 22.9639C4.29459 23.5687 3.59133 23.9484 2.82711 24H2.64895V24ZM4.52901 18.4817L1.95507 20.4462C1.45341 20.826 1.35026 21.5386 1.73003 22.0403C2.10979 22.5419 2.82243 22.6451 3.32409 22.2653C3.40848 22.1997 3.48349 22.1246 3.54913 22.0403L5.51826 19.4663L4.52901 18.4817Z" fill="#36496D"/>
</g>
</g>
<defs>
<clipPath id="clip0_15_41">
<rect width="24" height="24" fill="white"/>
</clipPath>
<clipPath id="clip1_15_41">
<rect width="24.0047" height="24" fill="white"/>
</clipPath>
</defs>
</svg>

<?xml version="1.0" encoding="utf-8"?>
<!-- Generator: Adobe Illustrator 27.5.0, SVG Export Plug-In . SVG Version: 6.00 Build 0)  -->
<svg version="1.1" id="Layer_1" xmlns="http://www.w3.org/2000/svg" xmlns:xlink="http://www.w3.org/1999/xlink" x="0px" y="0px"
	 viewBox="0 0 24 24" style="enable-background:new 0 0 24 24;" xml:space="preserve">
<style type="text/css">
	.st0{clip-path:url(#SVGID_00000008864584149956031660000002682989585644479899_);}
	.st1{clip-path:url(#SVGID_00000058549830224956744780000006583768118914436798_);}
	.st2{fill:#36496D;}
	.st3{fill:#F7ADAD;}
</style>
<g>
	<defs>
		<rect id="SVGID_1_" width="24" height="24"/>
	</defs>
	<clipPath id="SVGID_00000138570495838396786990000005829979032398845092_">
		<use xlink:href="#SVGID_1_"  style="overflow:visible;"/>
	</clipPath>
	<g style="clip-path:url(#SVGID_00000138570495838396786990000005829979032398845092_);">
		<g>
			<defs>
				<rect id="SVGID_00000170276558716954003920000010704821072906688416_" width="24" height="24"/>
			</defs>
			<clipPath id="SVGID_00000069386459701304382580000005252209566845582998_">
				<use xlink:href="#SVGID_00000170276558716954003920000010704821072906688416_"  style="overflow:visible;"/>
			</clipPath>
			<g style="clip-path:url(#SVGID_00000069386459701304382580000005252209566845582998_);">
				<path class="st2" d="M13.9,20.2c-5.6,0-10.1-4.5-10.1-10.1c0-3.8,2.1-7.2,5.4-8.9c4.9-2.6,11-0.6,13.6,4.3c0.2,0.4,0,0.8-0.3,1
					c-0.4,0.2-0.8,0-1-0.3C19.3,1.9,14.2,0.3,10,2.5C5.8,4.7,4.2,9.8,6.3,14c2.2,4.2,7.4,5.8,11.5,3.6c2.9-1.5,4.7-4.5,4.6-7.8
					c0-0.4,0.3-0.8,0.7-0.8c0.4,0,0.8,0.3,0.8,0.7c0.1,5.6-4.3,10.2-9.8,10.3C14.1,20.2,14,20.2,13.9,20.2L13.9,20.2z"/>
				<path class="st3" d="M13.9,15.3c2.9,0,5.2-2.3,5.2-5.2c0-2.9-2.3-5.2-5.2-5.2c-2.9,0-5.2,2.3-5.2,5.2
					C8.7,13,11.1,15.3,13.9,15.3z"/>
				<path class="st2" d="M13.9,16c-3.3,0-6-2.7-6-6c0-3.3,2.7-6,6-6c3.3,0,6,2.7,6,6C19.9,13.4,17.2,16,13.9,16z M13.9,5.6
					c-2.5,0-4.5,2-4.5,4.5s2,4.5,4.5,4.5s4.5-2,4.5-4.5C18.4,7.6,16.4,5.6,13.9,5.6z M2.6,24C1.2,24,0,22.8,0,21.4
					c0-0.8,0.4-1.6,1-2.1l3.1-2.4c0.3-0.2,0.7-0.2,1,0.1l1.9,1.9c0.3,0.3,0.3,0.7,0.1,1L4.8,23c-0.5,0.6-1.2,1-1.9,1H2.6L2.6,24z
					 M4.5,18.5l-2.6,2c-0.5,0.4-0.6,1.1-0.2,1.6c0.4,0.5,1.1,0.6,1.6,0.2c0.1-0.1,0.2-0.1,0.2-0.2l2-2.6L4.5,18.5z"/>
			</g>
		</g>
	</g>
</g>
</svg>
